lib/brands/icons/google-downasaur.svg

<svg xmlns="http://www.w3.org/2000/svg" fill="none" aria-hidden="true" viewBox="0 0 48 48"><path fill="#1E2226" d="M25.8 6v1.8H24v10.8h-1.8v1.8h-3.6v1.8h-1.8V24H15v1.8h-3.6V24H9.6v-1.8H7.8v-3.6H6v10.8h1.8v1.8h1.8V33h1.8v1.8h1.8V42h3.6v-1.8H15v-1.8h1.8v-1.8h1.8v-1.8h1.8v1.8h1.8V42h3.6v-1.8H24V33h1.8v-1.8h1.8v-1.8h1.8V24h1.8v1.8H33v-3.6h-3.6v-3.6h9v-1.8H33V15h9V7.8h-1.8V6H25.8Zm1.8 1.8h1.8v1.8h-1.8V7.8Z"/></svg>

<svg xmlns="http://www.w3.org/2000/svg" fill="none" aria-hidden="true" viewBox="0 0 48 48"><g id="google-downasaur-Icon"><path id="Vector" fill="#1E2226" d="M25.8 6V7.8H24V18.6H22.2V20.4H18.6V22.2H16.8V24H15V25.8H11.4V24H9.6V22.2H7.8V18.6H6V29.4H7.8V31.2H9.6V33H11.4V34.8H13.2V42H16.8V40.2H15V38.4H16.8V36.6H18.6V34.8H20.4V36.6H22.2V42H25.8V40.2H24V33H25.8V31.2H27.6V29.4H29.4V24H31.2V25.8H33V22.2H29.4V18.6H38.4V16.8H33V15H42V7.8H40.2V6H25.8ZM27.6 7.8H29.4V9.6H27.6V7.8Z"/></g></svg>
